X: 2757
T: Banks Of The Lossie, The
R: slip jig
M: 9/8
K: Dmajor
M:9/8
g|a2 a f3 a2 g|f>ef d3 A3|A>Bd f3 a2 f|a>fd e3 e2
g|a2 a f3 a2 g|f>ef d3 A3|A>Bd f3 a2 A|A>ce d3 d2:|
f|A>Bd d3 A2 d|B>GB d3 A2 f|g>fe f3 a2 f|a>fd e3 e2
f|g>fe f3 a2 f|a>fd B3 G2 B|A>Bd f3 a2 A|A>ce d3 d2:|

